X:1
T:Title
L:1/8
M:6/8
K:Eb
V:1 treble nm="Grand Piano"
V:1
 z3 z2[Q:1/4=130] C | G3 G2 A | G3 F2 =E | F3 F2 G | F3 E2 D | E3 E2 F | E3 D2 C | A3 F2 A | %8
 G3- G2 c | B3 G2 B | A3 F2 A | G3 E2 F | G3 G2 G | e3 d2 c | d3 c2 =B | c3 e2 d | c3- c2 G | %17
 (4:3:4AGFG F2 F | (4:3:4GFEF E2 E | F3 D2 =B, | D3 C2 G | (4:3:4AGFG F2 F | (4:3:4GFEF E2 E | %23
 F3 D2 =B, | D3 C2 C | G3 G2 G | G3 C2 C | A3 A2 A | A3 D2 D | B3 B2 B | B3 A2 G | e3 d2 c | %32
 c3- c2 c | B3 G2 B | A3 F2 A | G3 E2 G | F3 D2 D | E3 F2 F | G3 F2 E | B3 A2 G | G3- G2 G | %41
 (4:3:4AGFG F2 F | (4:3:4GFEF E2 E | F3 E2 =B, | D3 C2 G | (4:3:4AGFG F2 F | (4:3:4GFEF E2 E | %47
 F3 D2 =B, | D3 C2 C | F3 F2 F | =E3 E2 E | E3 E2 E | D3 D2 C | E3 C2 C | F3 D2 D | A3 A2 A | %56
 G3- G2 c | B3 G2 B | A3 F2 A | G3 E2 F | G3 G2 G | c3 =B2 c | d3 G2 G | e3 d2 c | c3- c2 G | %65
 (4:3:4AGFG F2 F | (4:3:4GFEF E2 E | F3 D2 =B, | D3 .C3 |] %69

